X: 4406
T: Major Thomas of Cairnleith
C: Lindsay Ross
R: strathspey
Z: 2014 John Chambers <jc:trillian.mit.edu>
B: RSCDS "Originally Ours", George Meikle, ed. p.134
M: C
L: 1/16
K: Bb
F4 |\
"Bb"d3c B3G F3D D3F | "Eb"GFGA B3G "Bb"F3B, DF3 |\
"Gm"d3c B3G "Dm"FD3 D3F | "C7"Gc3 c3=B | "F"c4 ||
"F7"c3f |\
"Bb"d3c "Gm"B3G "Dm"FD3 D3F | "Eb"GFGA B3G "Bb"F3B, DF3 |\
"Eb"G3B eg3 "Bb"F3B df3 | "F7"Fd3 c3B "Bb"B4 |]
"D7"B3A |\
"Gm"G3A B3c d3B G3d | "Cm"e3c Ae3 "Gm"d3B G4 |\
"D7"^F3G A3F Dc3 B3A | "Gm"G3A "Eb"B3c "D7"d4 ||
"D7"d4 |\
"Gm"G3A B3c d3B G3d | "Cm"ee3 "F7"f3e "Bb"d3c B3A |\
"Eb"G3B eg3 "Bb"F3B df3 | "F7"Fd3 c3B "Bb"B4 |]
